X:1
T:Mercy Is Boundless and Free
T:Mercy Is Boundless and Free
T:William James Kirkpatrick
T:Frances Jane (Fanny) Crosby, 1882
T:Public Domain Courtesy of the Cyber Hymnal™
T:Public Domain Courtesy of the Cyber Hymnal™
C:William James Kirkpatrick
Z:Public Domain
Z:Courtesy of the Cyber Hymnal™
%%score ( 1 2 ) 3
L:1/8
Q:1/4=93
M:6/8
K:E
V:1 treble 
V:2 treble 
V:3 bass 
V:1
 [EG][EG][EG] [EG][EG][EG] | [Ec][EB][B,E] [EG]2 z | [EG][DF]B, [DF]2 z | [B,F][B,E]B, [B,E]2 z | %4
w: 1.~Thanks be to Je- sus, His|mer- cy is free,|Mer- cy is free,|mer- cy is free;|
w: 2.~Why on the mount- ain of|sin wilt thou roam?|Mer- cy is free,|mer- cy is free;|
w: 3.~Think of His good- ness, His|pa- tience, and love,|Mer- cy is free,|mer- cy is free;|
w: 4.~Yes, there is par- don for|all who be- lieve,|Mer- cy is free,|mer- cy is free;|
 [EG][EG][EG] [EG][EG][EG] | [Ec][EB][B,E] [EG]2 z | [EG][DF]B, [DF][DG][DF] | E3- E2 z | %8
w: Sin- ner, that mer- cy is|flow- ing for thee,|Mer- cy is bound- less and|free. *|
w: Gent- ly the Spir- it is|call- ing, “Come home,”|Mer- cy is bound- less and|free. *|
w: Plead- ing thy cause with His|Fa- ther a- bove,|Mer- cy is bound- less and|free. *|
w: Come and this mo- ment a|bless- ing re- ceive,|Mer- cy is bound- less and|free. *|
 E[EG][EB] [Ge][Bd][Ac] | [Ac][GB][_F^A] [GB]2 z | [GB][FA][^EG] [FA]2 z | [FA][EG][DF] [EG]2 z | %12
w: If thou art will- ing on|Him to be- lieve,|Mer- cy is free,|mer- cy is free;|
w: Thou art in dark- ness, O|come to the light,|Mer- cy is free,|mer- cy is free;|
w: Come and re- pent- ing, O|give Him your heart,|Mer- cy is free,|mer- cy is free;|
w: Je- sus is wait- ing, O|hear Him pro- claim,|Mer- cy is free,|mer- cy is free;|
 E[EG][EB] [Ge][Bd][Ac] | [Ac][GB][_F^A] [GB]2 z | [DB][DF][DB] [Fd][Fd][Ec] | ([DB]3 [FA]3) || %16
w: Life ev- er- last- ing thy|soul may re- ceive,|Mer- cy is bound- less and|free. *|
w: Je- sus is wait- ing, He’ll|save you to- night,|Mer- cy is bound- less and|free. *|
w: Grieve Him no long- er, but|come as thou art,|Mer- cy is bound- less and|free. *|
w: Cling to His mer- cy, be-|lieve on His name,|Mer- cy is bound- less and|free. *|
"^Refrain" [EG][EG][EG] [EG][EG][EG] | [Ec][EB][B,E] [EG]2 z | [EG][DF]B, [DF]2 z | %19
w: |||
w: |||
w: Je- sus the Sav- ior is|look- ing for thee,|Look- ing for thee,|
w: |||
 [B,F][B,E]B, [B,E]2 z | [EG][EG][EG] [EG][EG][EG] | [Ec][EB][B,E] [EG]2 z | %22
w: |||
w: |||
w: look- ing for thee;|Lov- ing- ly, ten- der- ly|call- ing for thee,|
w: |||
 [EG][DF]B, [DF][DG][DF] | E6 |] %24
w: ||
w: ||
w: Call- ing and look- ing for|thee.|
w: ||
V:2
 x6 | x6 | x2 B, x3 | x2 B, x3 | x6 | x6 | x2 B, x3 | E3- E2 x | E x5 | x6 | x6 | x6 | E x5 | x6 | %14
 x6 | x6 || x6 | x6 | x2 B, x3 | x2 B, x3 | x6 | x6 | x2 B, x3 | E6 |] %24
V:3
 [E,B,][E,B,][E,B,] [E,B,][E,B,][E,B,] | [E,G,][E,G,][E,G,] [E,B,]2 z | %2
 [B,,B,][B,,B,][B,,B,] [B,,B,]2 z | [E,G,][E,G,][E,G,] [E,G,]2 z | %4
 [E,B,][E,B,][E,B,] [E,B,][E,B,][E,B,] | [E,G,][E,G,][E,G,] [E,B,]2 z | %6
 [B,,B,][B,,B,][B,,B,] [B,,B,][B,,B,][B,,A,] | [E,G,]3- [E,G,]2 z | %8
 [E,G,][E,G,][E,G,] [E,B,][E,B,][E,B,] | [E,E][E,E][E,E] [E,B,]2 z | %10
 [B,,B,][B,,B,][B,,B,] [B,,B,]2 z | [B,,B,][B,,B,][B,,B,] [E,B,]2 z | %12
 [E,G,][E,G,][E,G,] [E,B,][E,B,][E,B,] | [E,E][E,E][E,E] [E,B,]2 z | %14
 [F,B,][F,B,][F,B,] [F,B,][F,B,][F,^A,] | [B,,B,]6 || [E,B,][E,B,][E,B,] [E,B,][E,B,][E,B,] | %17
 [E,G,][E,G,][E,G,] [E,B,]2 z | [B,,B,][B,,B,][B,,B,] [B,,B,]2 z | [E,G,][E,G,][E,G,] [E,G,]2 z | %20
 [E,B,][E,B,][E,B,] [E,B,][E,B,][E,B,] | [E,G,][E,G,][E,G,] [E,B,]2 z | %22
 [B,,B,][B,,B,][B,,B,] [B,,B,][B,,B,][B,,A,] | [E,G,]6 |] %24

